src/actions/22/handle-move.svg

<?xml version="1.0" encoding="UTF-8" standalone="no"?>
<svg xmlns="http://www.w3.org/2000/svg" viewBox="0 0 22 22">
  <defs id="defs3051">
    <style type="text/css" id="current-color-scheme">
      .ColorScheme-Text {
        color:#363636;
      }
      </style>
  </defs>
 <path 
     style="fill:currentColor;fill-opacity:1;stroke:none" 
     d="m 11,3.1210938 -1.875,1.875 L 7.9492188,6.171875 8.65625,6.8789062 9.8320312,5.703125 11,4.5351562 12.167969,5.703125 13.34375,6.8789062 14.050781,6.171875 12.875,4.9960938 11,3.1210938 Z M 6.171875,7.9492188 4.9960938,9.125 l -1.875,1.875 1.875,1.875 L 6.171875,14.050781 6.8789062,13.34375 5.703125,12.167969 4.5351562,11 5.703125,9.8320312 6.8789062,8.65625 6.171875,7.9492188 Z m 9.65625,0 L 15.121094,8.65625 16.296875,9.8320312 17.464844,11 16.296875,12.167969 15.121094,13.34375 15.828125,14.050781 17.003906,12.875 18.878906,11 17.003906,9.125 15.828125,7.9492188 Z M 11,8.171875 8.171875,11 11,13.828125 13.828125,11 11,8.171875 Z M 11,9.5859375 12.414062,11 11,12.414062 9.5859375,11 11,9.5859375 Z M 8.65625,15.121094 7.9492188,15.828125 9.125,17.003906 l 1.875,1.875 1.875,-1.875 1.175781,-1.175781 L 13.34375,15.121094 12.167969,16.296875 11,17.464844 9.8320312,16.296875 8.65625,15.121094 Z"
	 class="ColorScheme-Text"
     />
</svg>

<svg xmlns="http://www.w3.org/2000/svg" viewBox="0 0 22 22">
    <path d="M11 3.121 9.125 4.996 7.949 6.172l.707.707 1.176-1.176L11 4.535l1.168 1.168 1.176 1.176.707-.707-1.176-1.176L11 3.121ZM6.172 7.95 4.996 9.125 3.121 11l1.875 1.875 1.176 1.176.707-.707-1.176-1.176L4.535 11l1.168-1.168L6.88 8.656l-.707-.707Zm9.656 0-.707.707 1.176 1.176L17.465 11l-1.168 1.168-1.176 1.176.707.707 1.176-1.176L18.879 11l-1.875-1.875-1.176-1.176ZM11 8.172 8.172 11 11 13.828 13.828 11 11 8.172Zm0 1.414L12.414 11 11 12.414 9.586 11 11 9.586ZM8.656 15.12l-.707.707 1.176 1.176L11 18.879l1.875-1.875 1.176-1.176-.707-.707-1.176 1.176L11 17.465l-1.168-1.168-1.176-1.176Z" style="fill:currentColor;fill-opacity:1;stroke:none;color:#050505;opacity:.7"/>
</svg>
